X:1
T:Pollonesse med variationer,
T:ur Andreas Dahlgrens notbok
S:Efter Andrea Dahlgren
O:Fgelvik, Smland
R:Slngpolska
N:http://www.smus.se/earkiv/fmk/browselarge.phplang=sw&katalogid=Ma7&bildnr=00010|SMUS MA7, nr 18
M:3/4
L:1/16
K:D
|:d2de d2A2d2f2|e2ef e2A2e2g2|f2fg f2a2g2f2|gfef e8|
d2de d2A2d2f2|e2ef e2A2e2g2|f2a2g2f2e2d2|fedc d4 D4:|
|:a2ab a2f2a2f2|g2ga g2e2g2e2|f2fg f2a2g2f2|gfef e8|
dedc dABc defd|efed eAef efge|fefg a2^a2 bgfe|afed gedc d4:|
|:dedc dABc defd|efed eAef efge|fefg afga bgfe|gfed eBcd dcBA|
dedc dABc defd|efed eAef efge|fefg afed bgfe|afed gedc d4:|
|:abag fgfe fgaf|gagf efed efge|fefg afga bagf|gfe^d eBc=d dcBA|
dedc dABc defd|efed eAef efge|fefg afed bgfe|afed gedc d4:|
|:zAFA DAFA dAfd|eAcA EAcA eAge|fdAd fdaf bagf|gfe^d eBc=d dcBA|
dAFA DAFA dAfd|eAcA EAcA eAge|fdAd bagf gfed|cdec d8:|
|:afdf Afdf afd'a|gece Aece gee'g|fgbc' d'abc' d'abc'|d'2[fa]2[eg]2[df]2 [ce]4|
dAFA DAFA dAfd|eAcA EAcA eAge|fdge fdge fdec|d12 :|
